src/assets/icons/stats/intelligence.svg

<svg height="512" viewBox="0 0 64 64" width="512" xmlns="http://www.w3.org/2000/svg"><g id="Brain"><circle cx="58" cy="6" fill="#2488ff" r="3"/><circle cx="58" cy="58" fill="#2488ff" r="3"/><circle cx="6" cy="6" fill="#2488ff" r="3"/><circle cx="6" cy="58" fill="#2488ff" r="3"/><path d="m58 32a8.976 8.976 0 0 0 -6.16-8.53v-.01a7.995 7.995 0 0 0 -5.84-13.46 7.836 7.836 0 0 0 -3.03.6 6.868 6.868 0 0 0 -.04-1.63 7 7 0 0 0 -10.93-4.71 6.947 6.947 0 0 0 -4.76-1.22 7.031 7.031 0 0 0 -6.19 6.1 6.5 6.5 0 0 0 -.02 1.46 7.836 7.836 0 0 0 -3.03-.6 7.995 7.995 0 0 0 -5.84 13.46v.01a8.979 8.979 0 0 0 -2.76 15.56 5.009 5.009 0 0 0 4.6 6.97 4.712 4.712 0 0 0 1-.1 6 6 0 0 0 9.24 5.15 7.832 7.832 0 0 0 -.24 1.95 8 8 0 0 0 16 0 7.832 7.832 0 0 0 -.24-1.95 6 6 0 0 0 9.24-5.15 4.712 4.712 0 0 0 1 .1 5.009 5.009 0 0 0 4.6-6.97 8.935 8.935 0 0 0 3.4-7.03z" fill="#ff9478"/><path d="m58 32a8.976 8.976 0 0 0 -6.16-8.53v-.01a7.995 7.995 0 0 0 -5.84-13.46 7.836 7.836 0 0 0 -3.03.6 6.868 6.868 0 0 0 -.04-1.63 7 7 0 0 0 -10.93-4.71v56.74a8 8 0 0 0 8-8 7.832 7.832 0 0 0 -.24-1.95 6 6 0 0 0 9.24-5.15 4.712 4.712 0 0 0 1 .1 5.009 5.009 0 0 0 4.6-6.97 8.935 8.935 0 0 0 3.4-7.03z" fill="#ffbcab"/><g fill="#231f20"><path d="m32 8a1 1 0 0 0 -1 1v43a1 1 0 0 0 2 0v-43a1 1 0 0 0 -1-1z"/><path d="m27 29a1 1 0 0 0 -1 1v1a1 1 0 0 0 2 0v-1a1 1 0 0 0 -1-1z"/><path d="m35 19v1a1 1 0 0 0 2 0v-1a1 1 0 0 0 -2 0z"/><path d="m15 26a4 4 0 0 0 -4 4 1 1 0 0 0 2 0 2 2 0 1 1 2 2 1 1 0 0 0 0 2 4 4 0 0 0 0-8z"/><path d="m46 37a1 1 0 0 0 0-2 2 2 0 0 1 0-4 1 1 0 0 0 0-2 4 4 0 0 0 0 8z"/><path d="m37 39h-1a1 1 0 0 0 0 2h1a1 1 0 0 0 0-2z"/><path d="m40.555 28.832a1 1 0 1 0 -1.11-1.664l-.328.219a6.984 6.984 0 0 0 -3.117 5.824v.789a1 1 0 0 0 2 0v-.789a4.988 4.988 0 0 1 2.227-4.16z"/><path d="m37 10a1 1 0 0 0 2 0 4 4 0 0 0 -4-4 1 1 0 0 0 0 2 2 2 0 0 1 2 2z"/><path d="m21 45a1 1 0 0 0 0-2 3 3 0 0 0 0 6 1 1 0 0 0 0-2 1 1 0 0 1 0-2z"/><path d="m58 54a4 4 0 0 0 -3.858 3h-9.142v-4.291a6.992 6.992 0 0 0 4.926-5.709h.074a5.986 5.986 0 0 0 5.76-7.664 9.868 9.868 0 0 0 3.24-7.336 10 10 0 0 0 -5.563-8.948 8.991 8.991 0 0 0 1.502-4.052h3.061a1 1 0 0 0 1-1v-8.142a4 4 0 1 0 -2 0v7.142h-2.059a8.963 8.963 0 0 0 -11-7.754c-.012-.139-.005-.276-.025-.415a8.036 8.036 0 0 0 -7.055-6.787 7.929 7.929 0 0 0 -4.861 1.03 7.931 7.931 0 0 0 -4.864-1.03 8.011 8.011 0 0 0 -7.079 6.977c-.009.074-.01.147-.017.221a8.91 8.91 0 0 0 -2.04-.242v-3a1 1 0 0 0 -1-1h-7.142a4 4 0 1 0 0 2h6.142v2.232a8.979 8.979 0 0 0 -5.437 13.82 10 10 0 0 0 -5.563 8.948 9.876 9.876 0 0 0 3.24 7.337 5.974 5.974 0 0 0 -.24 1.663h-2a1 1 0 0 0 -1 1v12.142a4 4 0 1 0 2 0v-11.142h1.35a6 6 0 0 0 5.65 4c.027 0 .049-.007.076-.007a6.989 6.989 0 0 0 8.942 5.707c0 .1-.018.2-.018.3a9 9 0 0 0 18 0c0-.1-.014-.2-.017-.3a6.971 6.971 0 0 0 2.017.3v5a1 1 0 0 0 1 1h10.142a3.993 3.993 0 1 0 3.858-5zm-2-48a2 2 0 1 1 2 2 2 2 0 0 1 -2-2zm-50 2a2 2 0 1 1 2-2 2 2 0 0 1 -2 2zm2 50a2 2 0 1 1 -2-2 2 2 0 0 1 2 2zm32.4-7.731a1.031 1.031 0 0 0 -.1-.072 4.933 4.933 0 0 1 -2.25-3.539 4.471 4.471 0 0 1 -.05-.658 1 1 0 0 0 -2 0 6.366 6.366 0 0 0 .067.938 6.9 6.9 0 0 0 2.784 4.679 6.852 6.852 0 0 1 .149 1.383 7 7 0 0 1 -14 0 6.9 6.9 0 0 1 .147-1.374 6.985 6.985 0 0 0 2.853-5.626 1 1 0 0 0 -2 0 5 5 0 1 1 -10-.155 5.171 5.171 0 0 1 5.251-4.845h1.749a5.006 5.006 0 0 0 5-5v-1a1 1 0 0 0 -2 0v1a3 3 0 0 1 -3 3h-1.749a7.227 7.227 0 0 0 -7.171 5.992c-.029 0-.051.008-.08.008a3.987 3.987 0 0 1 -3.444-2h1.444a1 1 0 0 0 0-2h-2a4 4 0 0 1 4-4 1 1 0 0 0 0-2 5.991 5.991 0 0 0 -4.831 2.456 7.9 7.9 0 0 1 -2.169-5.456 8.009 8.009 0 0 1 5.492-7.591c.016-.006.032-.011.048-.018a7.98 7.98 0 0 1 7.912 1.755 1 1 0 1 0 1.363-1.463 9.917 9.917 0 0 0 -9.315-2.355 6.993 6.993 0 0 1 3.5-11.028v6.7a1 1 0 0 0 2 0v-7a6.873 6.873 0 0 1 2.125.335 8.026 8.026 0 0 0 4.894 6.09 3.016 3.016 0 0 1 1.981 2.743v1.832a1 1 0 0 0 2 0v-1.832a5 5 0 0 0 -3.235-4.6 6 6 0 0 1 1.578-11.535 5.95 5.95 0 0 1 4.085 1.047 1 1 0 0 0 1.144 0 6 6 0 1 1 6 10.342 1 1 0 0 0 .86 1.807 7.978 7.978 0 0 0 4.451-5.9 6.868 6.868 0 0 1 2.117-.329 7 7 0 0 1 6.92 6h-6.92a1 1 0 0 0 0 2h6.921a7.008 7.008 0 0 1 -1.421 3.328 9.917 9.917 0 0 0 -9.313 2.355 1 1 0 1 0 1.363 1.463 7.98 7.98 0 0 1 7.912-1.755c.016.007.032.012.049.018a8.01 8.01 0 0 1 5.489 7.591 7.9 7.9 0 0 1 -2.17 5.456 5.988 5.988 0 0 0 -4.83-2.456 1 1 0 0 0 0 2 4 4 0 0 1 0 8c-.028 0-.049-.007-.077-.008a7.232 7.232 0 0 0 -7.173-5.992h-1.75a1 1 0 0 0 0 2h1.75a5.173 5.173 0 0 1 5.25 4.849v.024s0 .018 0 .027v.005a4.98 4.98 0 0 1 -3 4.676v-3.581a1 1 0 0 0 -2 0v4a4.967 4.967 0 0 1 -2.6-.731zm17.6 9.731a2 2 0 1 1 2-2 2 2 0 0 1 -2 2z"/><path d="m28 12a2 2 0 0 1 -2-2 1 1 0 0 0 -2 0 4 4 0 0 0 4 4 1 1 0 0 0 0-2z"/><path d="m50 29a2 2 0 0 1 2 2 1 1 0 0 0 2 0 4 4 0 0 0 -4-4 1 1 0 0 0 0 2z"/><path d="m32 55a1 1 0 0 0 -1 1v1a1 1 0 0 0 2 0v-1a1 1 0 0 0 -1-1z"/></g></g></svg>

<?xml version="1.0"?>
<svg xmlns="http://www.w3.org/2000/svg" viewBox="0 0 64 64" width="512" height="512"><g id="Brain"><path d="M32,8a1,1,0,0,0-1,1V52a1,1,0,0,0,2,0V9A1,1,0,0,0,32,8Z"/><path d="M27,29a1,1,0,0,0-1,1v1a1,1,0,0,0,2,0V30A1,1,0,0,0,27,29Z"/><path d="M35,19v1a1,1,0,0,0,2,0V19a1,1,0,0,0-2,0Z"/><path d="M15,26a4,4,0,0,0-4,4,1,1,0,0,0,2,0,2,2,0,1,1,2,2,1,1,0,0,0,0,2,4,4,0,0,0,0-8Z"/><path d="M46,37a1,1,0,0,0,0-2,2,2,0,0,1,0-4,1,1,0,0,0,0-2,4,4,0,0,0,0,8Z"/><path d="M37,39H36a1,1,0,0,0,0,2h1a1,1,0,0,0,0-2Z"/><path d="M40.555,28.832a1,1,0,1,0-1.11-1.664l-.328.219A6.984,6.984,0,0,0,36,33.211V34a1,1,0,0,0,2,0v-.789a4.988,4.988,0,0,1,2.227-4.16Z"/><path d="M37,10a1,1,0,0,0,2,0,4,4,0,0,0-4-4,1,1,0,0,0,0,2A2,2,0,0,1,37,10Z"/><path d="M21,45a1,1,0,0,0,0-2,3,3,0,0,0,0,6,1,1,0,0,0,0-2,1,1,0,0,1,0-2Z"/><path d="M58,54a4,4,0,0,0-3.858,3H45V52.709A6.992,6.992,0,0,0,49.926,47c.025,0,.049,0,.074,0a5.986,5.986,0,0,0,5.76-7.664A9.868,9.868,0,0,0,59,32a10,10,0,0,0-5.563-8.948A8.991,8.991,0,0,0,54.939,19H58a1,1,0,0,0,1-1V9.858a4,4,0,1,0-2,0V17H54.941a8.963,8.963,0,0,0-11-7.754c-.012-.139-.005-.276-.025-.415a8.036,8.036,0,0,0-7.055-6.787A7.929,7.929,0,0,0,32,3.074a7.931,7.931,0,0,0-4.864-1.03,8.011,8.011,0,0,0-7.079,6.977c-.009.074-.01.147-.017.221A8.91,8.91,0,0,0,18,9V6a1,1,0,0,0-1-1H9.858a4,4,0,1,0,0,2H16V9.232a8.979,8.979,0,0,0-5.437,13.82A10,10,0,0,0,5,32a9.876,9.876,0,0,0,3.24,7.337A5.974,5.974,0,0,0,8,41H6a1,1,0,0,0-1,1V54.142a4,4,0,1,0,2,0V43H8.35A6,6,0,0,0,14,47c.027,0,.049-.007.076-.007A6.989,6.989,0,0,0,23.018,52.7c0,.1-.018.2-.018.3a9,9,0,0,0,18,0c0-.1-.014-.2-.017-.3A6.971,6.971,0,0,0,43,53v5a1,1,0,0,0,1,1H54.142A3.993,3.993,0,1,0,58,54ZM56,6a2,2,0,1,1,2,2A2,2,0,0,1,56,6ZM6,8A2,2,0,1,1,8,6,2,2,0,0,1,6,8ZM8,58a2,2,0,1,1-2-2A2,2,0,0,1,8,58Zm32.4-7.731a1.031,1.031,0,0,0-.1-.072,4.933,4.933,0,0,1-2.25-3.539A4.471,4.471,0,0,1,38,46a1,1,0,0,0-2,0,6.366,6.366,0,0,0,.067.938,6.9,6.9,0,0,0,2.784,4.679A6.852,6.852,0,0,1,39,53a7,7,0,0,1-14,0,6.9,6.9,0,0,1,.147-1.374A6.985,6.985,0,0,0,28,46a1,1,0,0,0-2,0,5,5,0,1,1-10-.155A5.171,5.171,0,0,1,21.251,41H23a5.006,5.006,0,0,0,5-5V35a1,1,0,0,0-2,0v1a3,3,0,0,1-3,3H21.251a7.227,7.227,0,0,0-7.171,5.992c-.029,0-.051.008-.08.008a3.987,3.987,0,0,1-3.444-2H12a1,1,0,0,0,0-2H10a4,4,0,0,1,4-4,1,1,0,0,0,0-2,5.991,5.991,0,0,0-4.831,2.456A7.9,7.9,0,0,1,7,32a8.009,8.009,0,0,1,5.492-7.591c.016-.006.032-.011.048-.018a7.98,7.98,0,0,1,7.912,1.755,1,1,0,1,0,1.363-1.463A9.917,9.917,0,0,0,12.5,22.328,6.993,6.993,0,0,1,16,11.3V18a1,1,0,0,0,2,0V11a6.873,6.873,0,0,1,2.125.335,8.026,8.026,0,0,0,4.894,6.09A3.016,3.016,0,0,1,27,20.168V22a1,1,0,0,0,2,0V20.168a5,5,0,0,0-3.235-4.6A6,6,0,0,1,27.343,4.033,5.95,5.95,0,0,1,31.428,5.08a1,1,0,0,0,1.144,0,6,6,0,1,1,6,10.342,1,1,0,0,0,.86,1.807,7.978,7.978,0,0,0,4.451-5.9A6.868,6.868,0,0,1,46,11a7,7,0,0,1,6.92,6H46a1,1,0,0,0,0,2h6.921A7.008,7.008,0,0,1,51.5,22.328a9.917,9.917,0,0,0-9.313,2.355,1,1,0,1,0,1.363,1.463,7.98,7.98,0,0,1,7.912-1.755c.016.007.032.012.049.018A8.01,8.01,0,0,1,57,32a7.9,7.9,0,0,1-2.17,5.456A5.988,5.988,0,0,0,50,35a1,1,0,0,0,0,2,4,4,0,0,1,0,8c-.028,0-.049-.007-.077-.008A7.232,7.232,0,0,0,42.75,39H41a1,1,0,0,0,0,2h1.75A5.173,5.173,0,0,1,48,45.849c0,.008,0,.016,0,.024s0,.018,0,.027v.005a4.98,4.98,0,0,1-3,4.676V47a1,1,0,0,0-2,0v4A4.967,4.967,0,0,1,40.4,50.269ZM58,60a2,2,0,1,1,2-2A2,2,0,0,1,58,60Z"/><path d="M28,12a2,2,0,0,1-2-2,1,1,0,0,0-2,0,4,4,0,0,0,4,4,1,1,0,0,0,0-2Z"/><path d="M50,29a2,2,0,0,1,2,2,1,1,0,0,0,2,0,4,4,0,0,0-4-4,1,1,0,0,0,0,2Z"/><path d="M32,55a1,1,0,0,0-1,1v1a1,1,0,0,0,2,0V56A1,1,0,0,0,32,55Z"/></g></svg>
